X:609
%%etbk:tnset id:356,pos:1,rep:3x,ant:
%%etbk:pldat 2016-09-04T14:52,2014-12-14T15:45,2014-12-04T19:17,2014-12-01T19:05,2014-11-24T14:39,2014-11-10T18:23,2014-11-09T14:55,2014-10-19T15:19,2014-10-12T15:13,2014-10-11T15:24,2014-10-10T16:36,2014-10-09T10:59,2014-10-05T15:28,2014-10-03T15:55,2014-09-30T11:11,2014-09-24T16:31,2014-09-21T11:58,2014-09-16T17:56,2014-09-15T18:41,2014-09-14T12:21
T: Blind Harper's 1
Z: Piano Box Version by Martin Fleischmann
H: Created 2014-09-13 /  Last Modified 2014-09-30
R: strathspey
M: 4/4
L: 1/8
K: Ador
A<B|:!3!A>G !1!E<!2!G !1!A2 !2!e<!5!a|!2!e>!1!d !3!c<B !1!A2 (3ABc | !2!B<!1!G !3!d>!2!B !5!g2 !3!g<!5!b|!5!b>!1!B !3!B<A !1!G2 !3!A<B|
!3!A>G E<G !1!A2 e<a|!2!e>d !3!c<B !1!A2 !2!(3def | !5!g>!2!d !3!e<g !2!d<g !1!B>d|1!3!e>d !1!B<!2!G !3!A2 !3!A<B:|2e>d B<!2!G !1!A2 !2!e<!4!g|
|:!5!a>g e>g !5!a2 !4!a<b |  !4!a>!3!g !2!e<!1!B !1!A2 !2!(3def | !5!g>e d<e !5!g2 !3!g<!5!b| !5!b>!1!B !3!B<A !1!G2 e<g
|1a>g e<g a2 a<b |  a>g e<B A2 (3def | g>d e<g d<g B>d|e>d B<G A2 e<g:|
|2 A>G E<G A2 e<a|e>d c<B A2 (3def | g>d e<g d<g B>d|e>d B<G A2 A<B|


